X: 33633
T: Rambler, The
R: jig
M: 6/8
K: Gmajor
E|DED D2G|~E3 D2d|edB GAB|~A3 AGE|
DED D2G|~E3 D2d|edB GAB|AGF G2:|
B|dBA GBd|~g3 ege|ded edB|~A3 ABc|
dBA GBd|~g3 age|dBd edB|AGF G2:|

